X: 801
T: bourree  rgis
C: rgis reynaud
M: 3/8
L: 1/4
R: bourree
K: G
|:"G"dG/A/B|"G"Bcd|"G"_edc|"G"B_AG|"G"BG/A/B|"G"Bcd|"G"_edc|"G"d3:|
|:"Cm"_edc|"Cm/B"Bcd|"Cm/Bb"_e=fg|"Cm/A"=f_ed|"Cm/Ab"_edc|"Cm/Ab"Bcd|"Fm"_edc|"G"d3:|
